X:2027
T:Banish Misfortune
R:Jig
C:Trad.
O:Ireland
Z:Paul Hardy's Session Tunebook 2022 (see www.paulhardy.net). Creative Commons cc by-nc-sa licenced.
M:6/8
L:1/8
Q:3/8=90
K:Dmix
e|"D"fed "C"cAG|"D"A2 d "C"cAG|"D"FDD DED|FEF "C"GFG|
"D"A2d "C"cAG|"D"AGA "C"cde|"D"fed "C"cAG|"D"Ad^c d2:|
|:e|"D"f2d d^cd|f2g agf|"C"e2c cBc|e2f gfe|
"D"f2g agf|"C"e2f gfe|"D"fed "C"cAG|"D"Ad^c d2:|
|:e|"D"f2g"C"e2 f|"D"d2e"C"c2d|"D"ABA "C"GAG|"D"FGE FED|
"C"c3 cAG|AGA cde|"D"fed "C"cAG|"D"Ad^c d2:|

